X:1
T:Silver Threads Among the Gold
T:Silver Threads Among the Gold
T:Hart Pease Danks
T:Eben Rexford, 1873 & Richard W.  Adams, 2019
T:Public Domain Courtesy of the Cyber Hymnal™
T:Public Domain Courtesy of the Cyber Hymnal™
C:Hart Pease Danks
Z:Public Domain
Z:Courtesy of the Cyber Hymnal™
%%score ( 1 2 ) ( 3 4 )
L:1/8
Q:1/4=95
M:4/4
K:Bb
V:1 treble 
V:2 treble 
V:3 bass 
V:4 bass 
V:1
 [Fd]3 [Ge] [Fd][DF][CE][Ec] | (B4 B,2) z2 | [EF]3 [EG] [EA][Ee] [EG]>[Ee] | [Fd]6 z2 | %4
w: 1.~Dar- ling, I am grow- ing|old, *|Sil- ver threads a- mong the|gold.|
w: 2.~When your hair is sil- ver|white *|And your cheeks no long- er|bright|
w: 3.~Love can ne- ver- more grow|old; *|Locks may lose their brown and|gold,|
w: 4.~Love is al- ways young and|fair; *|What to us is sil- ver|hair,|
w: 5.~Soon we’ll join the Shep- herd’s|fold, *|There we’ll ne- ver- more grow|old;|
 [Fd]3 [Ge] [Fd][DF] [CE]>[Ec] | (B4 B,2) z2 | [EF]3 [EG] [EA][Ee] [EG]>[EA] | [DB]6 z2 | %8
w: Shine up- on my brow to-|day; *|Life is fad- ing fast a-|way;|
w: With the ros- es of the|May, *|I will kiss your lips and|say:|
w: Cheeks may fade and hol- low|grow; *|But the hearts that love will|know|
w: Fad- ed cheeks or steps grown|slow, *|To the hearts that beat be-|low?|
w: Age- less with the saints on|high, *|Ne’er a- gain to fade and|die;|
 [EA]3 [EB] [Ec][CF][CE][EA] | B3 F [Fd]2 z2 | [Fc]3 [Fc] [=Ec][Ec] [Ed]>[Ec] | c6 E2 | %12
w: Yes! my dar- ling, you will|be, will be,|Al- ways young and fair to|me. Yes!|
w: Oh! my dar- ling, mine a-|lone, a- lone,|You have nev- er old- er|grown, Yes!|
w: Ne- ver, ne- ver win- ter’s|frost and chill;|Sum- mer warmth is in them|still, Ne-|
w: Since I kissed you, mine a-|lone, a- lone,|You have nev- er old- er|grown, Since|
w: Cheeks a- bloom once more like|month of May,|Eyes a- spar- kle, fair as|day; For|
 [Fd]3 [Ge] [Fd][DF][CE][Ec] | (B4 B,2) z2 | [EF]3 [EG] [EA][Ge][Fd][Ec] | B8 || %16
w: * my dar- ling, you will|be *|Al- ways young and fair to|me.|
w: * my dar- ling, mine a-|lone, *|You have nev- er old- er|grown,|
w: * ver win- ter’s frost and|chill, *|Sum- mer warmth is in them|still.|
w: * I kissed you, mine a-|lone, *|You have nev- er old- er|grown,|
w: * the Lamb has set us|free, *|Free to love e- ter- nal-|ly.|
"^Refrain" [EA]3 [EB] [Ec][CF][CE][EA] | (B3 F [Fd]2) z2 | [Fc][Fc][=Ec][Ec] [Ed]>[Ec] | c6 E2 | %20
w: ||||
w: ||||
w: 1–3.~Dar- ling, I am grow- ing|old, * *|Sil- ver threads a- mong the|gold; Shine|
w: 5.~Yes, my dar- ling, we will|be * *|Al- ways young and fair and|free; Shin-|
w: ||||
 [Fd]3 [Ge] [Fd][DF][CE][Ec] | (B4 B,2) z2 | [EF]3 [EG] [EA][Ge]!fermata![Fd][Ec] | B8 |] %24
w: ||||
w: ||||
w: * up- on my brow to-|day, *|Life is fad- ing fast a-|way.|
w: * ing bright in Heav’n a-|bove, *|Rest- ing in im- mor- tal|love.|
w: ||||
V:2
 x8 | D6 x2 | x8 | x8 | x8 | D6 x2 | x8 | x8 | x8 | D4 x4 | x8 | F2 G2 F2 x2 | x8 | D6 x2 | x8 | %15
 (D2 E2 D4) || x8 | D4 x4 | x6 | F2 G2 F2 x2 | x8 | D6 x2 | x8 | (D2 E2 D4) |] %24
V:3
 [B,,B,]3 [B,,B,] [B,,B,][B,,B,][F,A,][F,A,] | (B,4 F,2) z2 | %2
 [F,A,]3 [F,B,] [F,C][F,A,] [F,,C]>[F,,A,] | [B,,B,]6 z2 | %4
 [B,,B,]3 [B,,B,] [B,,B,][B,,B,] [F,A,]>[F,A,] | (B,4 F,2) z2 | %6
 [F,A,]3 [F,B,] [F,C][F,A,] [F,,G,]>[F,,F,] | [B,,F,]6 z2 | [F,C]3 [F,B,] [F,A,][F,A,][F,A,][F,C] | %9
 [B,,B,]6 z2 | [C,A,]3 [C,A,] [C,G,][C,G,] [C,B,]>[C,B,] | (A,2 B,2 A,4) | %12
 [B,,B,]3 [B,,B,] [B,,B,][B,,B,][F,A,][F,A,] | (B,4 F,2) z2 | %14
 [F,A,]3 [F,B,] [F,C][F,A,][F,,A,][F,,F,] | (F,2 G,2 F,4) || %16
 [F,C]3 [F,B,] [F,A,][F,A,][F,A,][F,C] | [B,,B,]6 z2 | [C,A,][C,A,][C,G,][C,G,] [C,B,]>[C,B,] | %19
 (A,2 B,2 A,4) | [B,,B,]3 [B,,B,] [B,,B,][B,,B,][F,A,][F,A,] | (B,4 F,2) z2 | %22
 [F,A,]3 [F,B,] [F,C][F,A,]!fermata![F,,A,][F,,F,] | (F,2 G,2 F,4) |] %24
V:4
 x8 | B,,6 x2 | x8 | x8 | x8 | B,,6 x2 | x8 | x8 | x8 | x8 | x8 | F,,8 | x8 | B,,6 x2 | x8 | %15
 B,,8 || x8 | x8 | x6 | F,,8 | x8 | B,,6 x2 | x8 | B,,8 |] %24

